X:1
T: The Green Jerseys
C:
R:Jig
Q:180
K:D
M:6/8
L:1/16
|:A2|d2e2d2 A2F2A2|B4A2 A4A2|d2e2d2 A2F2A2|f4e2 e4e2|
d2e2d2 A2F2A2|B2G2B2 A4g2|f2e2f2 d2B2A2|B4d2 d4f2|
a2b2a2 f2d2f2|a2b2a2 f2d2f2|g2e2g2 f2d2f2|e2c2A2 A2B2c2|
d2e2d2 A2F2A2|B2G2B2 A4g2|f2e2f2 d2B2A2|B4d2 d4:|
